icons/cross-medical.svg

<?xml version="1.0" encoding="UTF-8"?><svg id="uuid-a77a6783-afe8-45ee-8788-f83730eab9aa" xmlns="http://www.w3.org/2000/svg" viewBox="0 0 50 50"><path d="M38.5,20.18h-9.72V9.61c0-.28-.22-.5-.5-.5h-7.79c-.28,0-.5,.22-.5,.5v10.57H10.25c-.28,0-.5,.22-.5,.5v7.39c0,.28,.22,.5,.5,.5h9.75v11.05c0,.28,.22,.5,.5,.5h7.79c.28,0,.5-.22,.5-.5v-11.05h9.72c.28,0,.5-.22,.5-.5v-7.39c0-.28-.22-.5-.5-.5Zm-.5,7.39h-9.72c-.28,0-.5,.22-.5,.5v11.05h-6.79v-11.05c0-.28-.22-.5-.5-.5H10.75v-6.39h9.75c.28,0,.5-.22,.5-.5V10.11h6.79v10.57c0,.28,.22,.5,.5,.5h9.72v6.39Z"/><path d="M24.69,1.12C11.52,1.12,.81,11.83,.81,25s10.71,23.88,23.88,23.88,23.88-10.71,23.88-23.88S37.85,1.12,24.69,1.12Zm0,46.76C12.07,47.88,1.81,37.62,1.81,25S12.07,2.12,24.69,2.12s22.88,10.26,22.88,22.88-10.26,22.88-22.88,22.88Z"/></svg>

<svg id="a6d77f52-f3ab-47ea-b54c-cd5ce223b41b" data-name="ICONS" xmlns="http://www.w3.org/2000/svg" viewBox="0 0 50 50"><path d="M38.5,20.18H28.78V9.61a.5.5,0,0,0-.5-.5H20.49a.51.51,0,0,0-.5.5V20.18H10.25a.5.5,0,0,0-.5.5v7.39a.5.5,0,0,0,.5.5H20v11a.5.5,0,0,0,.5.5h7.79a.5.5,0,0,0,.5-.5v-11H38.5a.5.5,0,0,0,.5-.5V20.68A.5.5,0,0,0,38.5,20.18ZM38,27.57H28.28a.5.5,0,0,0-.5.5v11H21v-11a.5.5,0,0,0-.5-.5H10.75V21.18h9.74a.5.5,0,0,0,.5-.5V10.11h6.79V20.68a.5.5,0,0,0,.5.5H38Z"/><path d="M24.69,1.12A23.88,23.88,0,1,0,48.57,25,23.9,23.9,0,0,0,24.69,1.12Zm0,46.76A22.88,22.88,0,1,1,47.57,25,22.9,22.9,0,0,1,24.69,47.88Z"/></svg>
